build/img/icons/svg/stability.svg

<svg xmlns="http://www.w3.org/2000/svg" viewBox="0 0 40 40"><defs><style>.cls-1{fill:#fff}</style></defs><g id="Layer_2" data-name="Layer 2"><g id="Режим_изоляции" data-name="Режим изоляции"><path class="cls-1" d="M36.94 21.54H3.06a.85.85 0 0 1-.85-.85V.85A.85.85 0 0 1 3.06 0h33.88a.85.85 0 0 1 .85.85v19.84a.85.85 0 0 1-.85.85zm-33-1.7h32.15V1.7H3.91zM36.7 31.33a.85.85 0 0 1-.85-.85v-1.6H4.15v1.6a.85.85 0 1 1-1.7 0V28a.85.85 0 0 1 .85-.85h33.4a.85.85 0 0 1 .85.85v2.45a.85.85 0 0 1-.85.88z"/><path class="cls-1" d="M20 31.33a.85.85 0 0 1-.85-.85V24.3a.85.85 0 1 1 1.7 0v6.18a.85.85 0 0 1-.85.85zM5.74 40H.85a.85.85 0 0 1-.85-.85v-4.9a.86.86 0 0 1 .85-.86h4.89a.86.86 0 0 1 .85.86v4.9a.85.85 0 0 1-.85.85zm-4-1.7h3.15v-3.2H1.7zM22.45 40h-4.9a.85.85 0 0 1-.85-.85v-4.9a.86.86 0 0 1 .85-.86h4.9a.86.86 0 0 1 .85.86v4.9a.85.85 0 0 1-.85.85zm-4.05-1.7h3.2v-3.2h-3.2zM39.15 40h-4.89a.85.85 0 0 1-.85-.85v-4.9a.86.86 0 0 1 .85-.86h4.89a.86.86 0 0 1 .85.86v4.9a.85.85 0 0 1-.85.85zm-4-1.7h3.15v-3.2h-3.19zM23.54 5.68h-2.22a.85.85 0 1 1 0-1.7h2.22a.85.85 0 0 1 0 1.7zM31.78 5.68h-2.22a.85.85 0 1 1 0-1.7h2.22a.85.85 0 0 1 0 1.7z"/></g></g></svg>

<svg xmlns="http://www.w3.org/2000/svg" viewBox="0 0 40 40"><defs><style>.cls-1{fill:#fff;}</style></defs><title>ic_6 Stability</title><g id="Layer_2" data-name="Layer 2"><g id="Режим_изоляции" data-name="Режим изоляции"><path class="cls-1" d="M36.94,21.54H3.06a.85.85,0,0,1-.85-.85V.85A.85.85,0,0,1,3.06,0H36.94a.85.85,0,0,1,.85.85V20.69A.85.85,0,0,1,36.94,21.54Zm-33-1.7H36.09V1.7H3.91Z"/><path class="cls-1" d="M36.7,31.33a.85.85,0,0,1-.85-.85v-1.6H4.15v1.6a.85.85,0,1,1-1.7,0V28a.85.85,0,0,1,.85-.85H36.7a.85.85,0,0,1,.85.85v2.45A.85.85,0,0,1,36.7,31.33Z"/><path class="cls-1" d="M20,31.33a.85.85,0,0,1-.85-.85V24.3a.85.85,0,1,1,1.7,0v6.18A.85.85,0,0,1,20,31.33Z"/><path class="cls-1" d="M5.74,40H.85A.85.85,0,0,1,0,39.15v-4.9a.86.86,0,0,1,.85-.86H5.74a.86.86,0,0,1,.85.86v4.9A.85.85,0,0,1,5.74,40Zm-4-1.7H4.89V35.1H1.7Z"/><path class="cls-1" d="M22.45,40h-4.9a.85.85,0,0,1-.85-.85v-4.9a.86.86,0,0,1,.85-.86h4.9a.86.86,0,0,1,.85.86v4.9A.85.85,0,0,1,22.45,40ZM18.4,38.3h3.2V35.1H18.4Z"/><path class="cls-1" d="M39.15,40H34.26a.85.85,0,0,1-.85-.85v-4.9a.86.86,0,0,1,.85-.86h4.89a.86.86,0,0,1,.85.86v4.9A.85.85,0,0,1,39.15,40Zm-4-1.7H38.3V35.1H35.11Z"/><path class="cls-1" d="M23.54,5.68H21.32a.85.85,0,1,1,0-1.7h2.22a.85.85,0,0,1,0,1.7Z"/><path class="cls-1" d="M31.78,5.68H29.56a.85.85,0,1,1,0-1.7h2.22a.85.85,0,0,1,0,1.7Z"/></g></g></svg>
